contributed-vectors/ubs_twint.svg

<?xml version="1.0" encoding="UTF-8" standalone="no"?>
<svg
   xmlns:dc="http://purl.org/dc/elements/1.1/"
   xmlns:cc="http://creativecommons.org/ns#"
   xmlns:rdf="http://www.w3.org/1999/02/22-rdf-syntax-ns#"
   xmlns:svg="http://www.w3.org/2000/svg"
   xmlns="http://www.w3.org/2000/svg"
   xmlns:xlink="http://www.w3.org/1999/xlink"
   xmlns:sodipodi="http://sodipodi.sourceforge.net/DTD/sodipodi-0.dtd"
   xmlns:inkscape="http://www.inkscape.org/namespaces/inkscape"
   sodipodi:docname="twint.svg"
   inkscape:version="1.0.1 (3bc2e813f5, 2020-09-07)"
   version="1.1"
   id="svg2"
   viewBox="0 0 192 192"
   height="192"
   width="192"
   inkscape:export-filename="/home/jphilippe/inkscape/icônes/delta-github/png/entrernom.png"
   inkscape:export-xdpi="96"
   inkscape:export-ydpi="96">
  <sodipodi:namedview
     inkscape:document-rotation="0"
     inkscape:window-maximized="1"
     inkscape:window-y="30"
     inkscape:window-x="1920"
     inkscape:window-height="1022"
     inkscape:window-width="1680"
     units="px"
     showgrid="false"
     inkscape:current-layer="layer1"
     inkscape:document-units="px"
     inkscape:cy="82.233752"
     inkscape:cx="43.772957"
     inkscape:zoom="2"
     inkscape:pageshadow="2"
     inkscape:pageopacity="0.0"
     borderopacity="1.0"
     bordercolor="#666666"
     pagecolor="#ffffff"
     id="base"
     inkscape:snap-bbox="false"
     inkscape:object-paths="true"
     inkscape:snap-nodes="true"
     showguides="true"
     inkscape:guide-bbox="true"
     inkscape:snap-object-midpoints="true"
     inkscape:snap-center="true"
     inkscape:snap-global="false"
     inkscape:snap-intersection-paths="true"
     inkscape:snap-smooth-nodes="true"
     inkscape:snap-midpoints="true">
    <inkscape:grid
       type="xygrid"
       id="grid1115" />
  </sodipodi:namedview>
  <defs
     id="defs4">
    <path
       d="M42.979,35.656 C42.979,36.836 44.213,37.954 45.446,37.954 C46.62,37.954 47.736,36.893 47.736,35.717 C47.736,35.54 47.678,35.365 47.678,35.128 L49.733,36.777 C49.381,38.778 47.619,40.544 45.563,40.309 C45.681,40.662 45.74,40.956 45.74,41.428 C45.74,42.899 44.447,44.606 43.039,45.136 L40.983,43.546 C42.275,43.429 43.332,42.546 43.332,41.133 C43.332,39.778 42.157,38.778 40.865,38.778 C39.515,38.778 38.517,39.957 38.517,41.368 C38.517,43.076 40.572,46.313 44.507,46.313 C46.092,46.313 47.619,45.843 48.794,44.782 L47.501,43.782 C47.795,42.781 48.382,41.898 49.322,41.486 L50.613,42.486 C51.083,41.604 51.378,40.603 51.378,39.544 C51.378,36.718 49.204,33.126 45.74,33.126 C44.272,33.126 42.979,34.129 42.979,35.656 Z M28.357,46.197 C28.357,47.491 29.414,48.551 30.647,48.551 C31.528,48.551 31.88,48.198 32.526,47.667 L32.526,50.318 C31.88,50.67 31.234,50.847 30.53,50.847 C29.121,50.847 27.946,50.434 27.182,49.198 C26.36,50.434 25.185,50.847 23.776,50.847 C23.13,50.847 22.425,50.67 21.78,50.318 L21.78,47.667 C22.367,48.256 22.836,48.551 23.659,48.551 C24.951,48.551 25.949,47.491 25.949,46.197 C25.949,44.96 25.127,43.841 23.776,43.841 C21.369,43.841 20.37,46.137 20.37,48.256 C20.37,51.376 22.661,54.026 25.655,54.556 L25.655,52.966 C26.125,52.73 26.654,52.671 27.124,52.671 C27.652,52.671 28.18,52.73 28.65,52.966 L28.65,54.556 C31.411,54.144 33.936,51.2 33.936,48.256 C33.936,46.077 33.054,43.841 30.53,43.841 C29.238,43.841 28.357,44.96 28.357,46.197 Z M10.915,41.133 C10.915,42.546 11.973,43.429 13.206,43.546 L11.15,45.136 C9.741,44.606 8.449,42.899 8.449,41.428 C8.449,40.956 8.566,40.662 8.684,40.309 C8.508,40.309 8.39,40.368 8.273,40.368 C6.393,40.368 4.808,38.602 4.456,36.777 L6.57,35.128 C6.51,35.365 6.51,35.54 6.51,35.717 C6.51,36.893 7.626,37.954 8.801,37.954 C10.034,37.954 11.209,36.893 11.209,35.656 C11.209,34.129 10.034,33.126 8.566,33.126 C5.689,33.126 2.87,35.893 2.87,39.544 C2.87,40.603 3.104,41.604 3.574,42.486 L4.867,41.486 C5.747,41.898 6.452,42.781 6.687,43.782 L5.395,44.782 C6.628,45.843 8.155,46.313 9.741,46.313 C13.029,46.313 15.672,43.665 15.672,41.309 C15.672,39.957 14.733,38.778 13.323,38.778 C12.031,38.778 10.915,39.778 10.915,41.133 Z M44.154,17.054 L43.097,17.938 L44.213,21.588 L40.865,19.762 L39.749,20.645 L43.449,22.648 L39.515,25.826 L38.458,24.414 L39.867,23.296 L38.809,22.058 L37.401,23.177 L36.344,21.824 L37.753,20.704 L36.696,19.35 L29.472,25.356 L36.344,30.889 L37.576,29.359 C38.458,29.418 39.104,30.065 39.456,30.889 L38.223,32.42 L38.986,33.009 C40.689,31.478 42.921,30.478 45.211,30.478 C50.027,30.478 53.784,34.422 53.784,39.249 C53.784,40.839 53.374,42.546 52.493,43.96 L53.784,44.96 C53.726,45.902 52.846,46.902 51.965,47.138 L50.731,46.137 C49.029,47.786 46.796,48.669 44.447,48.669 C39.632,48.669 35.874,44.843 35.874,39.957 C35.874,38.367 36.344,36.718 37.048,35.365 L36.344,34.715 L35.111,36.365 C34.229,36.247 33.466,35.656 33.231,34.715 L34.465,33.244 L28.65,28.416 L28.65,36.07 L30.589,36.128 C30.824,36.423 31,36.836 31,37.307 C31,37.718 30.824,38.191 30.647,38.543 L28.65,38.543 L28.65,39.485 C32.879,40.192 36.403,43.782 36.403,48.138 C36.403,52.671 32.937,56.265 28.65,56.969 L28.65,58.502 C28.239,58.734 27.711,58.913 27.241,58.913 C26.713,58.913 26.125,58.734 25.655,58.502 L25.655,56.969 C21.369,56.265 18.021,52.671 18.021,48.138 C18.021,43.782 21.369,40.192 25.655,39.544 L25.655,38.543 L23.659,38.543 C23.424,38.191 23.306,37.718 23.306,37.307 C23.306,36.836 23.424,36.423 23.659,36.07 L25.655,36.07 L25.655,28.416 L19.783,33.244 L21.075,34.715 C20.781,35.656 20.018,36.247 19.137,36.365 L17.903,34.715 L17.14,35.365 C17.963,36.718 18.373,38.367 18.373,39.957 C18.373,44.843 14.616,48.669 9.8,48.669 C7.51,48.669 5.219,47.786 3.574,46.137 L2.283,47.138 C1.46,46.902 0.58,45.902 0.462,44.96 L1.695,43.96 C0.932,42.546 0.462,40.839 0.462,39.249 C0.462,34.422 4.221,30.478 9.036,30.478 C11.385,30.478 13.617,31.478 15.319,33.009 L16.025,32.478 L14.791,30.889 C15.085,30.065 15.849,29.477 16.729,29.359 L17.963,30.889 L24.834,25.356 L17.61,19.35 L16.553,20.704 L17.963,21.824 L16.905,23.177 L15.496,22.058 L14.439,23.296 L15.789,24.414 L14.733,25.826 L10.857,22.648 L14.498,20.645 L13.441,19.762 L10.094,21.588 L11.209,17.938 L10.152,17.054 L8.919,21.058 L4.984,17.879 L6.041,16.583 L7.392,17.703 L8.508,16.408 L7.098,15.171 L8.155,13.934 L9.564,14.995 L10.563,13.758 L7.51,11.345 C7.803,10.342 8.449,9.519 9.389,8.929 L25.655,22.236 L25.655,13.345 L24.011,13.345 L24.011,15.053 L22.367,15.053 L22.367,13.345 L20.664,13.345 L20.664,15.053 L18.961,15.053 L18.961,10.048 L22.836,11.696 L22.836,10.283 L19.254,8.812 L22.836,7.399 L22.836,6.046 L18.961,7.577 L18.961,2.514 L20.664,2.514 L20.664,4.338 L22.367,4.338 L22.367,2.514 L24.011,2.514 L24.011,4.338 L25.655,4.338 L25.655,0.335 C26.125,0.158 26.654,0.04 27.182,0.04 C27.652,0.04 28.18,0.158 28.65,0.335 L28.65,22.236 L44.917,8.929 C45.798,9.519 46.444,10.342 46.796,11.345 L43.684,13.758 L44.742,14.995 L46.151,13.934 L47.208,15.171 L45.798,16.408 L46.855,17.703 L48.265,16.583 L49.322,17.879 L45.387,21.058 L44.154,17.054 Z"
       id="path-9" />
  </defs>
  <metadata
     id="metadata7">
    <rdf:RDF>
      <cc:Work
         rdf:about="">
        <dc:format>image/svg+xml</dc:format>
        <dc:type
           rdf:resource="http://purl.org/dc/dcmitype/StillImage" />
        <dc:title></dc:title>
      </cc:Work>
    </rdf:RDF>
  </metadata>
  <g
     transform="translate(0,-860.36216)"
     id="layer1"
     inkscape:groupmode="layer"
     inkscape:label="Calque 1">
    <rect
       style="fill:#545859;fill-opacity:1;fill-rule:evenodd;stroke:none;stroke-opacity:1"
       width="153"
       height="153"
       x="19.5"
       y="879.86218"
       rx="10"
       id="rect1005" />
    <rect
       style="fill:#56595b;fill-opacity:1;fill-rule:evenodd;stroke:none;stroke-opacity:1"
       width="153"
       height="153"
       x="19.5"
       y="879.86218"
       rx="10"
       id="rect1025" />
    <path
       id="rect1111"
       style="fill:#ffffff;fill-opacity:1;fill-rule:evenodd;stroke:none;stroke-opacity:1"
       d="m 19.5,971.51841 v 51.34379 c 0,5.54 4.46,10 10,10 h 133 c 5.54,0 10,-4.46 10,-10 v -51.34379 z" />
    <path
       id="path1372"
       style="fill:#ffffff;fill-opacity:1;stroke:none;stroke-width:3.36332;stroke-linecap:round;stroke-linejoin:round;stop-color:#000000"
       inkscape:transform-center-y="-3.1740346"
       d="m 99.16823,892.71336 22.42141,12.94501 a 6.3369861,6.3369861 0 0 1 3.16848,5.48799 v 25.89001 a 6.3369861,6.3369861 0 0 1 -3.16849,5.48799 l -22.421407,12.94501 a 6.3369861,6.3369861 0 0 1 -6.336979,0 L 70.409833,942.52436 a 6.3369861,6.3369861 0 0 1 -3.168493,-5.48799 v -25.89001 a 6.3369861,6.3369861 0 0 1 3.168493,-5.48799 l 22.421411,-12.94501 a 6.3369861,6.3369861 0 0 1 6.336986,0 z"
       inkscape:transform-center-x="2.2825075e-06" />
    <path
       d="m 96.377702,924.389 c 0,0 -1.756681,-2.65982 -2.894911,-4.51949 -1.220726,-1.99554 0.141807,-4.96864 2.894911,-4.96864 2.753643,0 4.116178,2.9731 2.89545,4.96864 -1.137691,1.85967 -2.89545,4.51949 -2.89545,4.51949 z m 13.172408,-0.25288 -6.69404,9.82296 -3.437876,-5.26842 3.967896,-5.91653 c 0.73708,-1.05736 2.30774,-3.94687 0.48743,-7.91369 -1.47037,-3.20387 -4.661835,-4.7659 -7.461849,-4.7659 -2.800013,0 -5.860995,1.43909 -7.477486,4.7659 -1.848882,3.80344 -0.243714,6.80403 0.451302,7.7956 0,0 2.18965,3.23137 4.037993,5.95158 l 2.981182,4.30058 4.494148,6.85364 c 0.0286,0.0464 0.74246,1.13662 2.00471,1.13662 1.20131,0 1.93192,-1.06814 2.02088,-1.20455 l 10.50935,-15.55779 z"
       id="Fill-6"
       fill="url(#linearGradient-3)"
       style="fill:#f8c18c;fill-opacity:1;fill-rule:evenodd;stroke:none;stroke-width:0.53919" />
    <path
       d="m 89.91605,933.64473 -6.581353,-9.24656 c 0,0 -1.754524,-2.66899 -2.893293,-4.52866 -1.220187,-1.99554 0.141807,-4.96864 2.89545,-4.96864 0.344003,0 0.666439,0.0464 0.96515,0.13157 l 2.326605,-4.25152 c -1.0649,-0.45939 -2.19019,-0.68638 -3.258325,-0.68638 -2.798935,0 -5.860456,1.43909 -7.477486,4.7659 -1.848883,3.80344 -0.243714,6.80403 0.451841,7.7956 l 11.512244,17.05081 c 0.09436,0.14612 0.827118,1.22288 2.049461,1.22288 1.229353,0 1.935692,-1.0525 2.021423,-1.18784 l 3.468609,-5.29484 -2.979024,-4.39386 -2.501302,3.59154"
       id="Fill-9"
       fill="url(#radialGradient-6)"
       style="fill:#99bdfe;fill-opacity:1;fill-rule:evenodd;stroke:none;stroke-width:0.53919" />
    <text
       xml:space="preserve"
       style="font-style:normal;font-variant:normal;font-weight:bold;font-stretch:normal;font-size:28.0326px;line-height:1.25;font-family:Aleo;-inkscape-font-specification:'Aleo Bold';letter-spacing:0px;word-spacing:0px;fill:#ff837d;fill-opacity:1;stroke-width:0.700816"
       x="86.081024"
       y="1010.5718"
       id="text1119"><tspan
         sodipodi:role="line"
         id="tspan1117"
         x="86.081024"
         y="1010.5718"
         style="fill:#ff837d;fill-opacity:1;stroke-width:0.700816">UBS</tspan></text>
    <use
       id="Clip-18"
       fill="#000105"
       xlink:href="#path-9"
       x="0"
       y="0"
       width="100%"
       height="100%"
       style="fill:#56595b;fill-opacity:1;fill-rule:evenodd;stroke:none;stroke-width:1"
       transform="matrix(0.53918995,0,0,0.53918995,51.930657,984.87425)" />
  </g>
  <style
     type="text/css"
     id="style853">
	.st0{fill:#FFFFFF;}
</style>
  <style
     type="text/css"
     id="style853-8">
	.st0{fill:#FFFFFF;}
</style>
</svg>

<svg xmlns="http://www.w3.org/2000/svg" xmlns:xlink="http://www.w3.org/1999/xlink" id="svg2" width="192" height="192" version="1.1"><defs id="defs4"><path id="path-9" d="M42.979 35.656c0 1.18 1.234 2.298 2.467 2.298 1.174 0 2.29-1.061 2.29-2.237 0-.177-.058-.352-.058-.589l2.055 1.649c-.352 2.001-2.114 3.767-4.17 3.532.118.353.177.647.177 1.119 0 1.471-1.293 3.178-2.701 3.708l-2.056-1.59c1.292-.117 2.349-1 2.349-2.413 0-1.355-1.175-2.355-2.467-2.355-1.35 0-2.348 1.179-2.348 2.59 0 1.708 2.055 4.945 5.99 4.945 1.585 0 3.112-.47 4.287-1.531l-1.293-1c.294-1.001.881-1.884 1.821-2.296l1.291 1c.47-.882.765-1.883.765-2.942 0-2.826-2.174-6.418-5.638-6.418-1.468 0-2.761 1.003-2.761 2.53ZM28.357 46.197c0 1.294 1.057 2.354 2.29 2.354.881 0 1.233-.353 1.879-.884v2.651c-.646.352-1.292.529-1.996.529-1.409 0-2.584-.413-3.348-1.649-.822 1.236-1.997 1.649-3.406 1.649a4.234 4.234 0 0 1-1.996-.529v-2.651c.587.589 1.056.884 1.879.884 1.292 0 2.29-1.06 2.29-2.354 0-1.237-.822-2.356-2.173-2.356-2.407 0-3.406 2.296-3.406 4.415 0 3.12 2.291 5.77 5.285 6.3v-1.59c.47-.236.999-.295 1.469-.295.528 0 1.056.059 1.526.295v1.59c2.761-.412 5.286-3.356 5.286-6.3 0-2.179-.882-4.415-3.406-4.415-1.292 0-2.173 1.119-2.173 2.356Zm-17.442-5.064c0 1.413 1.058 2.296 2.291 2.413l-2.056 1.59c-1.409-.53-2.701-2.237-2.701-3.708 0-.472.117-.766.235-1.119-.176 0-.294.059-.411.059-1.88 0-3.465-1.766-3.817-3.591l2.114-1.649c-.06.237-.06.412-.06.589 0 1.176 1.116 2.237 2.291 2.237 1.233 0 2.408-1.061 2.408-2.298 0-1.527-1.175-2.53-2.643-2.53-2.877 0-5.696 2.767-5.696 6.418 0 1.059.234 2.06.704 2.942l1.293-1c.88.412 1.585 1.295 1.82 2.296l-1.292 1c1.233 1.061 2.76 1.531 4.346 1.531 3.288 0 5.931-2.648 5.931-5.004 0-1.352-.939-2.531-2.349-2.531-1.292 0-2.408 1-2.408 2.355Zm33.239-24.079-1.057.884 1.116 3.65-3.348-1.826-1.116.883 3.7 2.003-3.934 3.178-1.057-1.412 1.409-1.118-1.058-1.238-1.408 1.119-1.057-1.353 1.409-1.12-1.057-1.354-7.224 6.006 6.872 5.533 1.232-1.53c.882.059 1.528.706 1.88 1.53l-1.233 1.531.763.589c1.703-1.531 3.935-2.531 6.225-2.531 4.816 0 8.573 3.944 8.573 8.771 0 1.59-.41 3.297-1.291 4.711l1.291 1c-.058.942-.938 1.942-1.819 2.178l-1.234-1.001a8.97 8.97 0 0 1-6.284 2.532c-4.815 0-8.573-3.826-8.573-8.712 0-1.59.47-3.239 1.174-4.592l-.704-.65-1.233 1.65c-.882-.118-1.645-.709-1.88-1.65l1.234-1.471-5.815-4.828v7.654l1.939.058c.235.295.411.708.411 1.179 0 .411-.176.884-.353 1.236H28.65v.942c4.229.707 7.753 4.297 7.753 8.653 0 4.533-3.466 8.127-7.753 8.831v1.533c-.411.232-.939.411-1.409.411-.528 0-1.116-.179-1.586-.411v-1.533c-4.286-.704-7.634-4.298-7.634-8.831 0-4.356 3.348-7.946 7.634-8.594v-1.001h-1.996c-.235-.352-.353-.825-.353-1.236 0-.471.118-.884.353-1.237h1.996v-7.654l-5.872 4.828 1.292 1.471a2.332 2.332 0 0 1-1.938 1.65l-1.234-1.65-.763.65c.823 1.353 1.233 3.002 1.233 4.592 0 4.886-3.757 8.712-8.573 8.712-2.29 0-4.581-.883-6.226-2.532l-1.291 1.001C1.46 46.902.58 45.902.462 44.96l1.233-1C.932 42.546.462 40.839.462 39.249c0-4.827 3.759-8.771 8.574-8.771 2.349 0 4.581 1 6.283 2.531l.706-.531-1.234-1.589c.294-.824 1.058-1.412 1.938-1.53l1.234 1.53 6.871-5.533-7.224-6.006-1.057 1.354 1.41 1.12-1.058 1.353-1.409-1.119-1.057 1.238 1.35 1.118-1.056 1.412-3.876-3.178 3.641-2.003-1.057-.883-3.347 1.826 1.115-3.65-1.057-.884-1.233 4.004-3.935-3.179 1.057-1.296 1.351 1.12 1.116-1.295-1.41-1.237 1.057-1.237 1.409 1.061.999-1.237-3.053-2.413c.293-1.003.939-1.826 1.879-2.416l16.266 13.307v-8.891h-1.644v1.708h-1.644v-1.708h-1.703v1.708h-1.703v-5.005l3.875 1.648v-1.413l-3.582-1.471 3.582-1.413V6.046l-3.875 1.531V2.514h1.703v1.824h1.703V2.514h1.644v1.824h1.644V.335c.47-.177.999-.295 1.527-.295.47 0 .998.118 1.468.295v21.901L44.917 8.929a4.779 4.779 0 0 1 1.879 2.416l-3.112 2.413 1.058 1.237 1.409-1.061 1.057 1.237-1.41 1.237 1.057 1.295 1.41-1.12 1.057 1.296-3.935 3.179-1.233-4.004Z"/></defs><g id="layer1" transform="translate(0 -860.362)"><rect id="rect1005" width="153" height="153" x="19.5" y="879.862" rx="10" style="fill:#545859;fill-opacity:1;fill-rule:evenodd;stroke:none;stroke-opacity:1"/><rect id="rect1025" width="153" height="153" x="19.5" y="879.862" rx="10" style="fill:#56595b;fill-opacity:1;fill-rule:evenodd;stroke:none;stroke-opacity:1"/><path id="rect1111" d="M19.5 971.518v51.344c0 5.54 4.46 10 10 10h133c5.54 0 10-4.46 10-10v-51.344z" style="fill:#fff;fill-opacity:1;fill-rule:evenodd;stroke:none;stroke-opacity:1"/><path id="path1372" d="m99.168 892.713 22.422 12.945a6.337 6.337 0 0 1 3.168 5.488v25.89a6.337 6.337 0 0 1-3.168 5.488L99.168 955.47a6.337 6.337 0 0 1-6.337 0L70.41 942.524a6.337 6.337 0 0 1-3.169-5.488v-25.89a6.337 6.337 0 0 1 3.169-5.488l22.421-12.945a6.337 6.337 0 0 1 6.337 0z" style="fill:#fff;fill-opacity:1;stroke:none;stroke-width:3.36332;stroke-linecap:round;stroke-linejoin:round;stop-color:#000"/><path id="Fill-6" fill="url(#linearGradient-3)" d="M96.378 924.389s-1.757-2.66-2.895-4.52c-1.22-1.995.142-4.968 2.895-4.968s4.116 2.973 2.895 4.969c-1.138 1.86-2.895 4.519-2.895 4.519zm13.172-.253-6.694 9.823-3.438-5.268 3.968-5.917c.737-1.057 2.308-3.947.488-7.914-1.47-3.203-4.662-4.765-7.462-4.765s-5.861 1.439-7.478 4.765c-1.849 3.804-.244 6.804.451 7.796 0 0 2.19 3.231 4.038 5.952l2.982 4.3 4.494 6.854c.028.046.742 1.136 2.005 1.136 1.2 0 1.931-1.068 2.02-1.204l10.51-15.558z" style="fill:#f8c18c;fill-opacity:1;fill-rule:evenodd;stroke:none;stroke-width:.53919"/><path id="Fill-9" fill="url(#radialGradient-6)" d="m89.916 933.645-6.581-9.247s-1.755-2.669-2.894-4.528c-1.22-1.996.142-4.97 2.896-4.97.344 0 .666.047.965.132l2.327-4.251a8.29 8.29 0 0 0-3.259-.686c-2.799 0-5.86 1.439-7.477 4.765-1.85 3.804-.244 6.804.452 7.796l11.512 17.05c.094.147.827 1.224 2.05 1.224 1.229 0 1.935-1.053 2.02-1.188l3.47-5.295-2.98-4.394-2.501 3.592" style="fill:#99bdfe;fill-opacity:1;fill-rule:evenodd;stroke:none;stroke-width:.53919"/><text xml:space="preserve" id="text1119" x="86.081" y="1010.572" style="font-style:normal;font-variant:normal;font-weight:700;font-stretch:normal;font-size:28.0326px;line-height:1.25;font-family:Aleo;-inkscape-font-specification:&quot;Aleo Bold&quot;;letter-spacing:0;word-spacing:0;fill:#ff837d;fill-opacity:1;stroke-width:.700816"><tspan id="tspan1117" x="86.081" y="1010.572" style="fill:#ff837d;fill-opacity:1;stroke-width:.700816">UBS</tspan></text><use xlink:href="#path-9" id="Clip-18" width="100%" height="100%" x="0" y="0" fill="#000105" style="fill:#56595b;fill-opacity:1;fill-rule:evenodd;stroke:none;stroke-width:1" transform="matrix(.53919 0 0 .53919 51.93 984.874)"/></g><style id="style853" type="text/css">.st0{fill:#fff}</style></svg>
